icons/circle/48/preferences-desktop-display.svg

<svg xmlns="http://www.w3.org/2000/svg" viewBox="0 0 48 48">
 <defs>
  <linearGradient id="linearGradient3764" x1="1" x2="47" gradientUnits="userSpaceOnUse" gradientTransform="matrix(0,-1,1,0,-1.5e-6,47.999998)">
   <stop style="stop-color:#60e6cb;stop-opacity:1"/>
   <stop offset="1" style="stop-color:#71e9d2;stop-opacity:1"/>
  </linearGradient>
 </defs>
 <g>
  <path d="m 36.31 5 c 5.859 4.062 9.688 10.831 9.688 18.5 c 0 12.426 -10.07 22.5 -22.5 22.5 c -7.669 0 -14.438 -3.828 -18.5 -9.688 c 1.037 1.822 2.306 3.499 3.781 4.969 c 4.085 3.712 9.514 5.969 15.469 5.969 c 12.703 0 23 -10.298 23 -23 c 0 -5.954 -2.256 -11.384 -5.969 -15.469 c -1.469 -1.475 -3.147 -2.744 -4.969 -3.781 z m 4.969 3.781 c 3.854 4.113 6.219 9.637 6.219 15.719 c 0 12.703 -10.297 23 -23 23 c -6.081 0 -11.606 -2.364 -15.719 -6.219 c 4.16 4.144 9.883 6.719 16.219 6.719 c 12.703 0 23 -10.298 23 -23 c 0 -6.335 -2.575 -12.06 -6.719 -16.219 z" style="opacity:0.05"/>
  <path d="m 41.28 8.781 c 3.712 4.085 5.969 9.514 5.969 15.469 c 0 12.703 -10.297 23 -23 23 c -5.954 0 -11.384 -2.256 -15.469 -5.969 c 4.113 3.854 9.637 6.219 15.719 6.219 c 12.703 0 23 -10.298 23 -23 c 0 -6.081 -2.364 -11.606 -6.219 -15.719 z" style="opacity:0.1"/>
  <path d="m 31.25 2.375 c 8.615 3.154 14.75 11.417 14.75 21.13 c 0 12.426 -10.07 22.5 -22.5 22.5 c -9.708 0 -17.971 -6.135 -21.12 -14.75 a 23 23 0 0 0 44.875 -7 a 23 23 0 0 0 -16 -21.875 z" style="opacity:0.2"/>
 </g>
 <g>
  <path d="m 24 1 c 12.703 0 23 10.297 23 23 c 0 12.703 -10.297 23 -23 23 -12.703 0 -23 -10.297 -23 -23 0 -12.703 10.297 -23 23 -23 z" style="fill:url(#linearGradient3764);fill-opacity:1"/>
 </g>
 <g>
  <g>
   <g transform="translate(1,1)">
    <g style="opacity:0.1">
     <!-- color: #71e9d2 -->
     <g>
      <path d="m 13.771 12 c -0.984 0 -1.773 0.789 -1.773 1.773 l 0.002 18.227 10 0 c 0 3 0 3 -2 5 l -2 0 0 1 14 0 0 -1 -2 0 c -2 -2 -2 -2 -2 -5 l 10 0 -0.002 -18.227 c 0 -0.984 -0.787 -1.773 -1.771 -1.773 l -22.453 0 z" transform="translate(-1,-1)"/>
     </g>
    </g>
   </g>
  </g>
 </g>
 <g>
  <g>
   <!-- color: #71e9d2 -->
   <g>
    <path d="m 12.773,11 22.453,0 c 0.984,0 1.773,0.789 1.773,1.773 l 0,15.227 -13,2 -13,-2 0,-15.227 C 10.999,11.789 11.788,11 12.772,11 m 0,0" style="fill:#697f8c;fill-opacity:1;stroke:none;fill-rule:nonzero"/>
    <path d="m 21 31 c 0 3 0 3 -2 5 l 5 1 5 -1 c -2 -2 -2 -2 -2 -5 l -3 -3 m -3 3" style="fill:#cfd6d6;fill-opacity:1;stroke:none;fill-rule:nonzero"/>
    <path d="m 17 36 14 0 0 1 -14 0 m 0 -1" style="fill:#e5ecec;fill-opacity:1;stroke:none;fill-rule:nonzero"/>
    <path d="m 11 28 26 0 0 3 -26 0 m 0 -3" style="fill:#e5ecec;fill-opacity:1;stroke:none;fill-rule:nonzero"/>
    <path d="m 13 13 22 0 0 13 -22 0 m 0 -13" style="fill:#dee5ea;fill-opacity:1;stroke:none;fill-rule:nonzero"/>
    <path d="M 12.781,11 C 11.801,11 11,11.801 11,12.781 L 11,28 30,28 18,11 m -5.219,0" style="fill:#000;fill-opacity:0.051;stroke:none;fill-rule:nonzero"/>
    <path d="m 21 29 6 0 0 1 -6 0 m 0 -1" style="fill:#697f8c;fill-opacity:1;stroke:none;fill-rule:nonzero"/>
   </g>
  </g>
 </g>
 <g>
  <path d="m 40.03 7.531 c 3.712 4.084 5.969 9.514 5.969 15.469 0 12.703 -10.297 23 -23 23 c -5.954 0 -11.384 -2.256 -15.469 -5.969 4.178 4.291 10.01 6.969 16.469 6.969 c 12.703 0 23 -10.298 23 -23 0 -6.462 -2.677 -12.291 -6.969 -16.469 z" style="opacity:0.1"/>
 </g>
</svg>

<svg xmlns="http://www.w3.org/2000/svg" viewBox="0 0 48 48">
  <defs>
    <linearGradient id="a" x1="1" x2="47" gradientUnits="userSpaceOnUse" gradientTransform="rotate(-90 24 24)">
      <stop stop-color="#60e6cb"/>
      <stop offset="1" stop-color="#71e9d2"/>
    </linearGradient>
  </defs>
  <path d="M36.31 5c5.859 4.062 9.688 10.831 9.688 18.5 0 12.426-10.07 22.5-22.5 22.5-7.669 0-14.438-3.828-18.5-9.688a23.24 23.24 0 0 0 3.781 4.969 22.923 22.923 0 0 0 15.469 5.969c12.703 0 23-10.298 23-23a22.92 22.92 0 0 0-5.969-15.469A23.216 23.216 0 0 0 36.31 5zm4.969 3.781A22.911 22.911 0 0 1 47.498 24.5c0 12.703-10.297 23-23 23a22.909 22.909 0 0 1-15.719-6.219C12.939 45.425 18.662 48 24.998 48c12.703 0 23-10.298 23-23 0-6.335-2.575-12.06-6.719-16.219z" opacity=".05"/>
  <path d="M41.28 8.781a22.923 22.923 0 0 1 5.969 15.469c0 12.703-10.297 23-23 23A22.92 22.92 0 0 1 8.78 41.281 22.911 22.911 0 0 0 24.499 47.5c12.703 0 23-10.298 23-23A22.909 22.909 0 0 0 41.28 8.781z" opacity=".1"/>
  <path d="M31.25 2.375C39.865 5.529 46 13.792 46 23.505c0 12.426-10.07 22.5-22.5 22.5-9.708 0-17.971-6.135-21.12-14.75a23 23 0 0 0 44.875-7 23 23 0 0 0-16-21.875z" opacity=".2"/>
  <path d="M24 1c12.703 0 23 10.297 23 23S36.703 47 24 47 1 36.703 1 24 11.297 1 24 1z" fill="url(#a)"/>
  <path d="M13.771 12c-.984 0-1.773.789-1.773 1.773L12 32h10c0 3 0 3-2 5h-2v1h14v-1h-2c-2-2-2-2-2-5h10l-.002-18.227c0-.984-.787-1.773-1.771-1.773H13.774z" opacity=".1"/>
  <g>
    <path d="M12.773 11h22.453c.984 0 1.773.789 1.773 1.773V28l-13 2-13-2V12.773c0-.984.789-1.773 1.773-1.773m0 0" fill="#697f8c"/>
    <path d="M21 31c0 3 0 3-2 5l5 1 5-1c-2-2-2-2-2-5l-3-3m-3 3" fill="#cfd6d6"/>
    <path d="M17 36h14v1H17m0-1M11 28h26v3H11m0-3" fill="#e5ecec"/>
    <path d="M13 13h22v13H13m0-13" fill="#dee5ea"/>
    <path d="M12.781 11c-.98 0-1.781.801-1.781 1.781V28h19L18 11m-5.219 0" fill-opacity=".051"/>
    <path d="M21 29h6v1h-6m0-1" fill="#697f8c"/>
  </g>
  <g>
    <path d="M40.03 7.531A22.922 22.922 0 0 1 45.999 23c0 12.703-10.297 23-23 23A22.92 22.92 0 0 1 7.53 40.031C11.708 44.322 17.54 47 23.999 47c12.703 0 23-10.298 23-23 0-6.462-2.677-12.291-6.969-16.469z" opacity=".1"/>
  </g>
</svg>
